site/_includes/assets/audience-2.svg

<?xml version="1.0" encoding="UTF-8"?>
<svg width="1728px" height="750px" viewBox="0 0 1728 750" version="1.1" xmlns="http://www.w3.org/2000/svg" xmlns:xlink="http://www.w3.org/1999/xlink">
    <title>audience-2</title>
    <g id="audience-2" stroke="none" stroke-width="1" fill="none" fill-rule="evenodd">
        <path d="M16.0593358,200.712858 C23.7107507,200.01662 29.2302759,204.688787 36.0703134,209.184645 C34.8343571,206.217991 33.9842998,204.177853 32.518963,200.659785 C44.9100094,204.024933 55.6639084,207.173293 62.1261426,217.597064 C66.9890099,225.442778 65.6532056,234.767321 58.8851307,243.408221 C61.6889703,244.472366 64.5117002,245.238767 67.0447808,246.561079 C74.9120833,250.670138 77.8715419,258.090374 78.4931182,266.19965 C78.9770661,272.512562 80.8507902,278.309143 82.5275169,284.253247 C83.3946653,287.326047 83.9982509,290.473507 84.8474086,294.132802 C86.6257824,294.716598 88.769366,295.569353 90.9885102,296.11357 C94.5092764,296.97712 95.6687725,299.200762 95.7920083,302.671155 C96.0843561,310.931552 93.3039042,318.715198 92.4241624,326.748014 C91.6307756,333.991942 86.7912962,338.983442 83.7688704,344.897861 C82.4969328,347.386865 77.8526517,348.153266 74.7411723,349.702259 C74.4740115,349.361337 74.2059511,349.019515 73.9378907,348.678592 C71.4021114,354.260185 68.8654326,359.841778 66.1587423,365.798476 C67.9748964,366.375075 69.7118917,366.925589 71.0710838,367.357364 C71.4875669,367.924968 71.6962582,368.082386 71.7259427,368.268589 C72.9852868,376.218649 74.2284394,384.170507 75.490482,392.233907 C75.9699323,392.55504 76.4502821,393.137037 76.9962978,393.206301 C97.3859781,395.810444 115.557414,404.235456 132.975942,414.57827 C138.927242,418.11073 144.703134,421.957126 150.631046,425.52107 C151.785145,424.967858 152.986919,424.401153 154.188693,423.733701 C154.181497,423.878526 154.298436,423.221868 154.234569,422.5832 C153.818086,418.447155 154.393787,413.786682 152.628006,410.328883 C150.865824,406.880079 146.298903,404.992862 143.737936,401.798626 C135.64845,391.712179 132.283302,379.811377 130.82966,367.099198 C128.330761,345.239683 134.141735,324.893181 141.142788,304.634832 C144.543017,294.798455 151.377657,288.147319 159.996968,283.180106 C165.809741,279.830251 171.934651,276.922965 178.159409,274.410574 C187.265366,270.735987 196.366826,269.939003 205.741743,274.567092 C211.297249,277.309764 217.573281,278.588897 223.518284,280.547177 C235.998384,284.657137 246.177483,291.919954 254.372214,302.248375 C260.692323,310.213726 263.226303,319.461809 264.94081,329.146165 C265.625353,333.014151 266.390855,336.878538 267.35965,340.683556 C268.959917,346.964085 268.928433,352.962161 265.895213,358.933251 C262.779236,365.068056 262.481491,371.351284 266.080516,377.573343 C267.588131,380.179286 268.76202,382.980427 270.04835,385.712304 C274.034174,394.177795 270.561083,400.661618 261.229343,402.239396 C260.560991,402.351837 259.916927,402.618998 259.059673,402.874465 C256.860319,408.117834 254.634878,413.42597 252.255617,419.100214 C253.990813,419.880108 255.603673,420.604231 257.043823,421.250994 C258.774522,429.604943 260.457545,437.724114 262.21433,446.198601 C265.769279,446.710434 269.334122,446.716731 272.552645,447.777278 C283.992887,451.547215 295.765955,454.734255 306.564831,459.910159 C318.342397,465.554719 329.438118,472.613343 340.760521,479.216804 C344.857887,474.867569 350.26497,471.958484 356.693922,470.195402 C361.438051,468.895579 366.135404,467.423946 370.866041,466.07105 C378.024512,464.024616 381.705395,458.443023 385.212668,452.643744 C379.005901,454.964535 373.387427,458.413339 365.398688,459.106878 C367.559363,457.042453 368.786324,455.95312 369.918834,454.774734 C375.1685,449.308281 378.029909,442.694026 378.462584,435.212622 C378.995107,426.036502 378.834091,416.817203 379.443973,407.648279 C380.692523,388.890349 381.96446,370.124323 383.792308,351.417666 C385.040858,338.64162 389.22278,326.83437 398.16952,317.091544 C408.619377,305.71247 421.738145,298.758193 436.117156,293.900722 C439.121591,292.886051 442.354507,292.304954 445.523556,292.06298 C462.084831,290.797339 477.21675,295.815825 491.695609,303.185687 C494.087463,304.402753 496.125801,306.540939 497.959946,308.583775 C502.634811,313.791163 505.495321,319.969145 506.968754,326.805584 C508.230796,332.655238 509.336321,338.549868 510.882615,344.32396 C513.027098,352.325293 513.107157,360.262759 511.452019,368.346848 C510.147698,374.713732 510.246647,381.025745 512.35155,387.360246 C517.185632,401.910168 517.022817,416.376433 510.785466,430.580935 C509.938107,432.511329 509.244568,434.509189 508.89645,435.403323 C511.714682,445.698461 519.754694,447.143109 528.604285,448.809041 C525.198659,454.239513 522.237401,458.962053 519.095338,463.972443 C520.833233,464.372735 522.262588,464.694767 523.689245,465.029393 C533.87554,467.41585 544.045643,469.867973 554.248129,472.176171 C565.006526,474.611202 571.639671,481.695013 576.188602,491.235444 C577.154699,493.261189 578.049732,500.807359 578.875502,512.569632 C585.142538,505.572177 593.887783,501.384858 605.193995,500.143504 C614.570711,499.113541 623.985208,498.434394 633.379915,497.567246 C635.447938,497.376545 637.504267,497.062609 639.742301,496.783754 C640.442136,494.578103 641.062813,492.621622 641.860698,490.103833 C640.200162,489.768308 638.840071,489.118846 637.604115,489.30325 C626.968054,490.888225 620.316918,487.761453 614.99529,478.190438 C611.814547,482.475806 607.934867,481.000575 604.298061,479.267177 C601.297224,477.836922 598.296387,476.148502 595.811881,473.98243 C594.223309,472.596252 593.218532,470.235881 592.60775,468.122882 C592.042844,466.163702 592.072529,463.920271 592.312704,461.856745 C596.330911,427.357014 602.250728,393.294455 616.499307,361.266636 C621.775059,349.406313 628.783309,338.79454 639.601074,331.100847 C647.670771,325.360037 656.616612,321.759213 666.416108,321.011702 C670.900273,320.67078 675.659694,321.51544 680.015225,322.78288 C682.761495,323.581664 684.755756,323.149889 687.18809,322.308827 C690.948131,321.008104 694.813418,319.454613 698.710188,319.209041 C710.64967,318.453435 720.880941,322.24406 729.026199,331.475952 C738.384025,342.081428 742.465199,355.129133 746.576958,368.139057 C751.650315,384.190297 754.715019,400.636431 755.629843,417.507144 C756.434923,432.361108 757.794116,447.183588 758.890644,462.02046 C758.968004,463.067515 759.021976,464.142455 758.876252,465.174217 C757.61241,474.072383 757.786919,477.876502 745.9194,479.587411 C744.051073,479.855471 742.190842,480.1829 740.33331,480.519325 C733.552641,481.748985 733.014721,481.545691 728.708664,475.982988 C728.42801,476.162894 727.925172,476.312216 727.89099,476.533501 C726.752183,483.806213 722.331885,486.735088 715.213893,486.484119 C713.643311,486.427448 712.040346,487.266711 710.516539,487.675998 C710.828677,490.668739 712.619644,491.062734 714.953029,491.335292 C724.542034,492.455209 734.201204,493.307065 743.65348,495.171794 C756.925168,497.78943 769.047255,503.040895 776.67798,515.056837 C779.200267,519.028269 781.033512,523.570903 782.460169,528.086551 C791.13525,522.573322 800.455296,518.3914 810.357339,515.460727 C822.47043,511.876094 834.652785,508.521741 846.847733,505.225857 C850.757997,504.169807 854.805889,503.623792 859.630976,502.680183 C862.456404,496.016454 864.983188,488.736545 874.34911,489.520037 C874.090944,485.168104 873.712242,481.204768 873.673562,477.238734 C873.651073,474.860373 872.943142,473.151263 870.908402,471.872129 C862.565247,466.62876 858.668477,458.357568 855.957289,449.390138 C851.478522,434.582051 849.494155,419.321499 847.843515,403.992583 C847.346074,399.372589 846.415958,394.772385 845.327525,390.248641 C842.923977,380.24765 845.422876,371.021156 850.123827,362.439625 C855.85924,351.969079 864.027885,343.999229 876.093301,340.948019 C876.65371,340.805893 877.134059,340.351629 878.637176,339.455696 C873.059182,338.760358 868.431992,338.183758 863.704054,337.594565 C871.698191,319.255817 896.133064,313.882915 922.316627,324.565751 C922.550505,323.365776 922.784383,322.233266 923.072233,320.790417 C930.727246,320.09418 936.25037,324.766347 943.086809,329.262205 C941.854451,326.294651 940.999896,324.255413 939.53366,320.737345 C951.929204,324.101593 962.678605,327.249953 969.137241,337.673724 C974.003706,345.519438 972.6724,354.844881 965.898928,363.48578 C968.705466,364.549926 971.529995,365.315427 974.057678,366.638638 C981.928579,370.746798 984.888037,378.167933 985.508714,386.27721 C985.994461,392.590122 987.865487,398.386703 989.547611,404.329907 C990.411161,407.402707 991.013847,410.550168 991.859407,414.209462 C993.640479,414.793258 995.781364,415.646913 998.003207,416.19113 C1001.52037,417.05468 1002.68977,419.277422 1002.8067,422.748714 C1003.10355,431.009112 1000.324,438.791858 999.442457,446.825574 C998.650869,454.068602 993.81139,459.060102 990.788964,464.974522 C989.511629,467.464425 984.870047,468.230826 981.757668,469.779819 C981.487808,469.437997 981.226944,469.096175 980.957085,468.756152 C978.420406,474.337745 975.883727,479.920237 973.176137,485.875136 C974.993191,486.451735 976.729287,487.004048 978.087579,487.434923 C978.501364,488.001628 978.717251,488.159946 978.744237,488.345249 C980.003581,496.295309 981.244935,504.248067 982.504279,512.310567 C982.990026,512.6326 983.466778,513.213697 984.015492,513.28386 C990.132306,514.065553 996.051223,515.380668 1001.80822,517.10597 C1002.16804,514.692527 1002.53685,513.044585 1002.91465,512.250299 C1007.46628,502.710767 1014.09583,495.626957 1024.85422,493.192824 C1035.05491,490.882828 1045.22861,488.431604 1055.41131,486.044248 C1056.84156,485.709622 1058.27182,485.38759 1060.00791,484.987298 C1056.86855,479.976908 1053.90009,475.254367 1050.49986,469.823896 C1059.35125,468.157963 1067.38407,466.713316 1070.2086,456.419977 C1069.85778,455.524943 1069.16514,453.527084 1068.31958,451.59579 C1062.07683,437.391288 1061.91492,422.925022 1066.7544,408.376 C1068.8593,402.041499 1068.95825,395.729487 1067.65393,389.361703 C1065.99879,381.278513 1066.07075,373.341047 1068.22064,365.338815 C1069.76783,359.564722 1070.87425,353.670992 1072.1336,347.821339 C1073.60883,340.984899 1076.46934,334.806917 1081.13791,329.59863 C1082.97295,327.555794 1085.01489,325.417607 1087.40764,324.200541 C1101.8901,316.831579 1117.02022,311.813093 1133.58059,313.078734 C1136.74694,313.320708 1139.97626,313.901805 1142.9807,314.916477 C1157.36421,319.773947 1170.47938,326.727325 1180.93193,338.106399 C1189.88227,347.849224 1194.06509,359.657374 1195.30644,372.43252 C1197.14149,391.140077 1198.40983,409.905203 1199.66018,428.663134 C1200.27186,437.832958 1200.10994,447.052256 1200.64067,456.228377 C1201.00947,462.67352 1203.19534,468.473699 1207.14428,473.451706 C1208.47559,472.94527 1209.87885,472.512595 1211.36308,472.176171 C1221.56377,469.867973 1231.72847,467.41585 1241.92017,465.029393 C1243.34143,464.694767 1244.77168,464.372735 1246.51677,463.972443 C1243.36841,458.962053 1240.40895,454.239513 1236.99973,448.809041 C1245.85112,447.143109 1253.89293,445.698461 1256.70846,435.403323 C1256.36664,434.509189 1255.674,432.511329 1254.81945,430.580935 C1248.58569,416.376433 1248.42378,401.910168 1253.25426,387.360246 C1255.35917,381.025745 1255.45812,374.713732 1254.15379,368.346848 C1252.49866,360.262759 1252.57961,352.325293 1254.7295,344.32396 C1256.27669,338.549868 1257.37412,332.655238 1258.64246,326.805584 C1260.10869,319.969145 1262.9782,313.791163 1267.64677,308.583775 C1269.48181,306.540939 1271.52375,304.402753 1273.9165,303.185687 C1288.38996,295.815825 1303.52008,290.797339 1320.08046,292.06298 C1323.2558,292.304954 1326.48512,292.886051 1329.48956,293.900722 C1343.86407,298.758193 1356.98824,305.71247 1367.44079,317.091544 C1376.38213,326.83437 1380.56496,338.64162 1381.8153,351.417666 C1383.64135,370.124323 1384.91869,388.890349 1386.16004,407.648279 C1386.77172,416.817203 1386.60981,426.036502 1387.14953,435.212622 C1387.5813,442.694026 1390.44181,449.308281 1395.68608,454.774734 C1396.81949,455.95312 1398.05185,457.042453 1400.21072,459.106878 C1392.22288,458.413339 1386.60081,454.964535 1380.39404,452.643744 C1383.90222,458.443023 1387.5813,464.024616 1394.74157,466.07105 C1399.47311,467.423946 1404.16866,468.895579 1408.91819,470.195402 C1415.34084,471.958484 1420.74703,474.867569 1424.84889,479.216804 C1436.17399,472.613343 1447.26522,465.554719 1459.04008,459.910159 C1469.84346,454.734255 1481.61832,451.547215 1493.05137,447.777278 C1496.27169,446.716731 1499.84283,446.710434 1503.39598,446.198601 C1505.15007,437.724114 1506.83219,429.604943 1508.56829,421.250994 C1510.00754,420.604231 1511.6177,419.880108 1513.35379,419.100214 C1510.97004,413.42597 1508.74819,408.117834 1506.54434,402.874465 C1505.68979,402.618998 1505.04212,402.351837 1504.37647,402.239396 C1495.04833,400.661618 1491.57614,394.177795 1495.56106,385.712304 C1496.84739,382.980427 1498.01678,380.179286 1499.528,377.573343 C1503.12612,371.351284 1502.82928,365.068056 1499.7079,358.933251 C1496.67648,352.962161 1496.6495,346.964085 1498.25066,340.683556 C1499.21316,336.878538 1499.98676,333.014151 1500.6704,329.146165 C1502.37951,319.461809 1504.91619,310.213726 1511.2399,302.248375 C1519.42563,291.919954 1529.60833,284.657137 1542.09383,280.547177 C1548.03073,278.588897 1554.30946,277.309764 1559.86857,274.567092 C1569.24169,269.939003 1578.34495,270.735987 1587.4482,274.410574 C1593.67296,276.922965 1599.79877,279.830251 1605.60974,283.180106 C1614.22726,288.147319 1621.0637,294.798455 1624.46393,304.634832 C1631.46228,324.893181 1637.27325,345.239683 1634.78155,367.099198 C1633.32431,379.811377 1629.96006,391.712179 1621.87327,401.798626 C1619.30961,404.992862 1614.73999,406.880079 1612.97691,410.328883 C1611.21383,413.786682 1611.78953,418.447155 1611.37574,422.5832 C1611.31277,423.221868 1611.42971,423.878526 1611.42072,423.733701 C1612.6171,424.401153 1613.82247,424.967858 1614.97387,425.52107 C1620.90178,421.957126 1626.67677,418.11073 1632.63167,414.57827 C1650.0466,404.235456 1668.22613,395.810444 1688.60952,393.206301 C1689.15823,393.137037 1689.63498,392.55504 1690.12073,392.233907 C1691.38007,384.170507 1692.62143,376.218649 1693.88077,368.268589 C1693.90776,368.082386 1694.12364,367.924968 1694.53743,367.357364 C1695.89572,366.925589 1697.63182,366.375075 1699.44887,365.798476 C1696.74128,359.841778 1694.2046,354.260185 1691.66792,348.678592 C1691.39806,349.019515 1691.1372,349.361337 1690.86734,349.702259 C1687.75496,348.153266 1683.11338,347.386865 1681.83604,344.897861 C1678.81362,338.983442 1673.97414,333.991942 1673.18255,326.748014 C1672.30101,318.715198 1669.52146,310.931552 1669.8183,302.671155 C1669.93524,299.200762 1671.09564,296.97712 1674.6218,296.11357 C1676.84364,295.569353 1678.98453,294.716598 1680.75661,294.132802 C1681.61116,290.473507 1682.21385,287.326047 1683.0774,284.253247 C1684.75952,278.309143 1686.63055,272.512562 1687.11629,266.19965 C1687.73697,258.090374 1690.69643,250.670138 1698.56733,246.561079 C1701.09501,245.238767 1703.91954,244.472366 1706.72608,243.408221 C1699.95261,234.767321 1698.6213,225.442778 1703.47877,217.597064 C1707.09489,211.762703 1715.46447,206.134634 1728.58751,200.712858 L1728.58751,750 L-9.09494702e-13,749.553104 C0.0473209218,382.262668 0.0473209218,199.079079 -9.09494702e-13,200.002336 C4.95371994,200.884668 10.0882457,202.363498 15.2956335,204.488191 C15.538507,203.289116 15.766988,202.156606 16.0593358,200.712858 Z" id="Path" fill="#FFFFFF"></path>
    </g>
</svg>

<svg width="1728" height="750" viewBox="0 0 1728 750" xmlns="http://www.w3.org/2000/svg"><path d="M16.06 200.713c7.65-.696 13.17 3.976 20.01 8.472l-3.551-8.525c12.391 3.365 23.145 6.513 29.607 16.937 4.863 7.846 3.527 17.17-3.24 25.811 2.803 1.064 5.626 1.83 8.159 3.153 7.867 4.11 10.827 11.53 11.448 19.639.484 6.313 2.358 12.11 4.035 18.053.867 3.073 1.47 6.22 2.32 9.88 1.778.584 3.921 1.436 6.14 1.98 3.521.864 4.68 3.088 4.804 6.558.292 8.26-2.488 16.044-3.368 24.077-.793 7.244-5.633 12.235-8.655 18.15-1.272 2.489-5.916 3.255-9.028 4.804l-.803-1.023-7.78 17.12 4.913 1.558c.417.568.625.725.655.912 1.26 7.95 2.502 15.902 3.764 23.965.48.321.96.903 1.506.972 20.39 2.604 38.561 11.03 55.98 21.372 5.951 3.533 11.727 7.38 17.655 10.943 1.154-.553 2.356-1.12 3.558-1.787-.008.145.11-.512.046-1.15-.417-4.137.159-8.797-1.607-12.255-1.762-3.449-6.33-5.336-8.89-8.53-8.09-10.087-11.455-21.988-12.908-34.7-2.5-21.86 3.312-42.206 10.313-62.464 3.4-9.837 10.235-16.488 18.854-21.455 5.813-3.35 11.938-6.257 18.162-8.77 9.106-3.674 18.208-4.471 27.583.157 5.555 2.743 11.831 4.022 17.776 5.98 12.48 4.11 22.66 11.373 30.854 21.701 6.32 7.966 8.854 17.214 10.569 26.898.684 3.868 1.45 7.733 2.419 11.538 1.6 6.28 1.568 12.278-1.465 18.25-3.116 6.134-3.414 12.417.186 18.64 1.507 2.605 2.681 5.406 3.967 8.138 3.986 8.466.513 14.95-8.819 16.527-.668.113-1.312.38-2.17.635l-6.803 16.226 4.788 2.151c1.73 8.354 3.414 16.473 5.17 24.948 3.555.511 7.12.518 10.339 1.578 11.44 3.77 23.213 6.957 34.012 12.133 11.777 5.645 22.873 12.703 34.196 19.307 4.097-4.35 9.504-7.259 15.933-9.022 4.744-1.3 9.441-2.771 14.172-4.124 7.159-2.046 10.84-7.628 14.347-13.427-6.207 2.32-11.826 5.77-19.814 6.463 2.16-2.065 3.387-3.154 4.52-4.332 5.25-5.467 8.11-12.081 8.544-19.562.532-9.176.371-18.396.981-27.565 1.249-18.758 2.52-37.524 4.348-56.23 1.249-12.776 5.43-24.584 14.378-34.326 10.45-11.38 23.568-18.334 37.947-23.191 3.005-1.015 6.238-1.596 9.407-1.838 16.56-1.266 31.693 3.753 46.172 11.123 2.391 1.217 4.43 3.355 6.264 5.398 4.675 5.207 7.535 11.385 9.009 18.222 1.262 5.85 2.367 11.744 3.914 17.518 2.144 8.001 2.224 15.939.569 24.023-1.304 6.367-1.205 12.679.9 19.013 4.834 14.55 4.67 29.016-1.567 43.22-.847 1.931-1.54 3.93-1.889 4.823 2.819 10.295 10.859 11.74 19.708 13.406l-9.509 15.163c1.738.4 3.168.723 4.594 1.057 10.187 2.387 20.357 4.839 30.56 7.147 10.758 2.435 17.39 9.519 21.94 19.06.966 2.025 1.86 9.571 2.687 21.334 6.267-6.998 15.012-11.185 26.318-12.426 9.377-1.03 18.791-1.71 28.186-2.577 2.068-.19 4.124-.504 6.362-.783l2.119-6.68c-1.66-.336-3.02-.985-4.257-.8-10.636 1.584-17.287-1.543-22.609-11.114-3.18 4.286-7.06 2.81-10.697 1.077-3-1.43-6.002-3.118-8.486-5.285-1.589-1.386-2.593-3.746-3.204-5.86-.565-1.958-.535-4.202-.295-6.265 4.018-34.5 9.938-68.563 24.186-100.59 5.276-11.86 12.284-22.472 23.102-30.166 8.07-5.741 17.016-9.342 26.815-10.09 4.484-.34 9.244.504 13.6 1.772 2.745.799 4.74.367 7.172-.474 3.76-1.3 7.625-2.854 11.522-3.1 11.94-.756 22.17 3.035 30.316 12.267 9.358 10.605 13.44 23.653 17.551 36.663 5.073 16.051 8.138 32.497 9.053 49.368.805 14.854 2.164 29.677 3.26 44.513.078 1.048.132 2.122-.014 3.154-1.264 8.898-1.09 12.703-12.957 14.413-1.868.268-3.728.596-5.586.932-6.78 1.23-7.318 1.027-11.624-4.536-.281.18-.784.33-.818.55-1.139 7.273-5.56 10.202-12.677 9.951-1.57-.057-3.174.783-4.697 1.192.312 2.993 2.103 3.387 4.436 3.66 9.589 1.12 19.248 1.971 28.7 3.836 13.272 2.617 25.394 7.869 33.025 19.885 2.522 3.971 4.356 8.514 5.782 13.03 8.675-5.514 17.995-9.696 27.897-12.626 12.113-3.585 24.296-6.94 36.49-10.235 3.911-1.056 7.959-1.602 12.784-2.546 2.825-6.664 5.352-13.943 14.718-13.16-.258-4.352-.637-8.315-.675-12.281-.023-2.379-.73-4.088-2.766-5.367-8.343-5.243-12.24-13.514-14.95-22.482-4.48-14.808-6.464-30.069-8.114-45.397-.498-4.62-1.428-9.22-2.516-13.744-2.404-10.001.095-19.228 4.796-27.81 5.735-10.47 13.904-18.44 25.97-21.491.56-.142 1.04-.596 2.543-1.492l-14.933-1.861c7.994-18.34 32.43-23.712 58.613-13.03.234-1.2.467-2.332.755-3.775 7.655-.696 13.178 3.976 20.015 8.472-1.233-2.967-2.087-5.007-3.553-8.525 12.395 3.365 23.145 6.513 29.603 16.937 4.867 7.845 3.535 17.17-3.238 25.812 2.806 1.064 5.631 1.83 8.159 3.153 7.87 4.108 10.83 11.529 11.45 19.638.486 6.313 2.357 12.11 4.04 18.053.863 3.073 1.466 6.22 2.311 9.88 1.781.583 3.922 1.437 6.144 1.981 3.517.864 4.687 3.086 4.804 6.558.297 8.26-2.483 16.043-3.365 24.077-.791 7.243-5.63 12.234-8.653 18.149-1.277 2.49-5.919 3.256-9.031 4.805-.27-.342-.531-.684-.8-1.024l-7.782 17.12 4.912 1.559c.413.567.63.725.656.91 1.26 7.95 2.5 15.903 3.76 23.966.486.322.963.903 1.511.973 6.117.782 12.036 2.097 17.793 3.822.36-2.413.729-4.061 1.107-4.856 4.551-9.54 11.18-16.623 21.94-19.057 10.2-2.31 20.374-4.761 30.556-7.149 1.43-.334 2.86-.656 4.597-1.057-3.14-5.01-6.108-9.733-9.508-15.163 8.851-1.666 16.884-3.11 19.709-13.404-.351-.895-1.044-2.893-1.89-4.824-6.242-14.205-6.404-28.671-1.565-43.22 2.105-6.335 2.204-12.647.9-19.014-1.655-8.083-1.583-16.021.567-24.023 1.547-5.774 2.653-11.668 3.913-17.518 1.475-6.836 4.335-13.014 9.004-18.222 1.835-2.043 3.877-4.181 6.27-5.398 14.482-7.37 29.612-12.388 46.173-11.122 3.166.242 6.395.823 9.4 1.837 14.383 4.858 27.498 11.811 37.95 23.19 8.951 9.743 13.134 21.551 14.375 34.327 1.835 18.707 3.104 37.472 4.354 56.23.612 9.17.45 18.39.98 27.565.37 6.446 2.555 12.246 6.504 17.224a31.312 31.312 0 014.22-1.276c10.2-2.308 20.364-4.76 30.556-7.147 1.421-.334 2.852-.656 4.597-1.057-3.149-5.01-6.108-9.732-9.517-15.163 8.851-1.666 16.893-3.11 19.708-13.406-.341-.894-1.034-2.892-1.889-4.822-6.233-14.205-6.395-28.67-1.565-43.22 2.105-6.335 2.204-12.647.9-19.014-1.655-8.084-1.574-16.022.575-24.023 1.548-5.774 2.645-11.669 3.913-17.518 1.467-6.837 4.336-13.015 9.005-18.222 1.835-2.043 3.877-4.181 6.27-5.398 14.473-7.37 29.603-12.389 46.163-11.123 3.176.242 6.405.823 9.41 1.838 14.374 4.857 27.498 11.811 37.95 23.19 8.942 9.743 13.125 21.55 14.375 34.327 1.826 18.706 3.104 37.472 4.345 56.23.612 9.17.45 18.389.99 27.565.431 7.481 3.292 14.095 8.536 19.562 1.133 1.178 2.366 2.267 4.525 4.332-7.988-.694-13.61-4.142-19.817-6.463 3.508 5.799 7.187 11.38 14.348 13.427 4.731 1.353 9.427 2.825 14.176 4.124 6.423 1.763 11.829 4.673 15.93 9.022 11.326-6.604 22.417-13.662 34.192-19.307 10.803-5.176 22.578-8.363 34.011-12.133 3.22-1.06 6.792-1.067 10.345-1.578a31564.72 31564.72 0 015.172-24.948l4.786-2.15c-2.384-5.675-4.606-10.983-6.81-16.227-.854-.255-1.502-.522-2.168-.635-9.328-1.577-12.8-8.061-8.815-16.527 1.286-2.732 2.456-5.533 3.967-8.139 3.598-6.222 3.301-12.505.18-18.64-3.032-5.97-3.059-11.969-1.457-18.25.962-3.804 1.736-7.669 2.42-11.537 1.709-9.684 4.245-18.932 10.569-26.898 8.186-10.328 18.368-17.59 30.854-21.7 5.937-1.96 12.215-3.238 17.775-5.98 9.373-4.629 18.476-3.832 27.58-.157 6.224 2.512 12.35 5.42 18.16 8.77 8.618 4.966 15.455 11.617 18.855 21.454 6.998 20.258 12.81 40.605 10.318 62.464-1.458 12.712-4.822 24.613-12.909 34.7-2.563 3.194-7.133 5.081-8.896 8.53-1.763 3.458-1.187 8.118-1.601 12.254-.063.639.054 1.296.045 1.15 1.196.668 2.401 1.235 3.553 1.788 5.928-3.564 11.703-7.41 17.658-10.943 17.415-10.343 35.594-18.768 55.978-21.372.548-.069 1.025-.651 1.51-.972 1.26-8.063 2.501-16.015 3.76-23.965.028-.187.244-.344.657-.912l4.912-1.559-7.781-17.12c-.27.342-.53.683-.8 1.024-3.113-1.549-7.755-2.315-9.032-4.804-3.022-5.915-7.862-10.906-8.653-18.15-.882-8.033-3.662-15.816-3.365-24.077.117-3.47 1.278-5.694 4.804-6.557 2.222-.545 4.363-1.397 6.135-1.981.854-3.66 1.457-6.807 2.32-9.88 1.683-5.944 3.554-11.74 4.04-18.053.62-8.11 3.58-15.53 11.45-19.639 2.528-1.322 5.353-2.089 8.16-3.153-6.774-8.64-8.106-17.965-3.248-25.81 3.616-5.835 11.985-11.463 25.109-16.885V750L0 749.553c.047-367.29.047-550.474 0-549.55 4.954.882 10.088 2.36 15.296 4.485l.763-3.775z" fill="#FFF" fill-rule="evenodd"/></svg>
